!!!!SEGMENT: pl-cz--iii-195--006_elsner-jozef--missa-f-op-25-agnus-dei.krn
!!!cenid: 18xx:252
!!!COM: Elsner, Józef
!!!COM-rismID: pe30000957
!!!CDT: 1769/06/01-1854/04/18
!!!CNT: Polish
!!!OPR: Missa F op. 25
!!!OTL: Agnus Dei
!!!OMV: 006
!!!PDT:
!!!AGN: Sacred; Mass
!!!SMS-siglum: PL-CZ
!!!SMS-shelfmark: III-195
!!!SMS-shelfwork: 001-006 M
!!!NIFC-rismSourceID: 300000255
!!!NIFC-rismChildID: 300000255
!!!NIFC-islandoraID: pl-cz:36060
!!!URL-pdf-islandora: https://repozytorium.nifc.pl/islandora/object/pl-cz%3A36060/datastream/PDF/view
!!!URL-scan:
!!!ONB-nifc: UWAGA: części Mszy: Kyrie, Gloria, Credo, Sanctus, Benedictus, Agnus Dei
!!!AIN: 1 alto 1 bass 1 clars 1 cor 1 empty 1 organ 1 tenor 1 viola 1 violn 1 vox
!!!key:
**kern	**fb	**dynam	**kern	**kern	**kern	**dynam	**kern	**dynam	**kern	**dynam	**kern	**text	**kern	**text	**kern	**text	**kern	**text
*part10	*	*part10	*part9	*part8	*part7	*part7	*part6	*part6	*part5	*part5	*part4	*part4	*part3	*part3	*part2	*part2	*part1	*part1
*staff10	*	*	*staff9	*staff8	*staff7	*	*staff6	*	*staff5	*	*staff4	*staff4	*staff3	*staff3	*staff2	*staff2	*staff1	*staff1
*Iorgan	*	*	*Icor	*Iclars	*Iviola	*	*Iempty	*	*Ivioln	*	*Ibass	*	*Itenor	*	*Ialto	*	*Ivox	*
*I"Organo et Basso	*	*	*I"Corni in F.	*I"Clarinetti in B.	*I"Viole	*	*I"P6	*	*I"Violini	*	*I"Basso	*	*I"Tenore	*	*I"Alto	*	*I"Canto	*
*I'10.	*	*	*I'9.	*I'8.	*I'7.	*	*I'6.	*	*I'5.	*	*I'4.	*	*I'3.	*	*I'2.	*	*I'1.	*
*group5	*	*	*group4	*group3	*group2	*	*group2	*	*group2	*	*group1	*	*group1	*	*group1	*	*group1	*
*clefF4	*	*	*clefG2	*clefG2	*clefC3	*	*clefG2	*	*clefG2	*	*clefF4	*	*clefC4	*	*clefC3	*	*clefC1	*
*	*	*	*ITrd4c7	*ITrd1c2	*	*	*	*	*	*	*	*	*	*	*	*	*	*
*k[b-]	*	*	*k[b-]	*k[b-]	*k[b-]	*	*k[b-]	*	*k[b-]	*	*k[b-]	*	*k[b-]	*	*k[b-]	*	*k[b-]	*
*F:	*	*	*	*F:	*F:	*	*F:	*	*F:	*	*F:	*	*F:	*	*F:	*	*F:	*
*M4/4	*	*	*M4/4	*M4/4	*M4/4	*	*M4/4	*	*M4/4	*	*M4/4	*	*M4/4	*	*M4/4	*	*M4/4	*
*met(c)	*	*	*met(c)	*met(c)	*met(c)	*	*met(c)	*	*met(c)	*	*met(c)	*	*met(c)	*	*met(c)	*	*met(c)	*
=1	=1	=1	=1	=1	=1	=1	=1	=1	=1	=1	=1	=1	=1	=1	=1	=1	=1	=1
*Xtuplet	*	*	*	*	*Xtuplet	*	*Xtuplet	*	*Xtuplet	*	*	*	*	*	*	*	*	*
*tremolo	*	*	*	*	*tremolo	*	*tremolo	*	*tremolo	*	*	*	*	*	*	*	*	*
!	!	!	!	!	!	!	!LO:TX:a:t=problem:takty 1-3 mają znaki powtórki i notatkę "Col Primo"	!	!	!	!	!	!	!	!	!	!	!
!LO:TX:a:t=unisono	!	!	!	!	!LO:TX:a:t=problem:cała partia altówek ma znaki powtórki i notatkę "Col Basso"	!	!LO:TX:a:t=problem: partie skrzypiec mają wspólną nazwę "Violini" i są połączone akoladą (jedynie w pierwszym systemie "Kyrie". Potem partie tylko numerowane )	!	!	!	!	!	!	!	!	!	!LO:TX:a:B:t=Agnus Dei\nAndante	!
12D\L	3	f	1r	1r	12d\Lyy	f	12d'/Lyy	f	12d'/L	f	2r	.	2r	.	2r	.	2r	.
12D\	.	.	.	.	12d\yy	.	12d'/yy	.	12d'/	.	.	.	.	.	.	.	.	.
12D\J	.	.	.	.	12d\Jyy	.	12d'/Jyy	.	12d'/J	.	.	.	.	.	.	.	.	.
*Xtremolo	*	*	*	*	*Xtremolo	*	*Xtremolo	*	*Xtremolo	*	*	*	*	*	*	*	*	*
12D'\L	.	.	.	.	12d'\Lyy	.	12d'/Lyy	.	12d'/L	.	.	.	.	.	.	.	.	.
(12D\	.	.	.	.	(12d\yy	.	(12d/yy	.	(12d/	.	.	.	.	.	.	.	.	.
12E\J	.	.	.	.	12e\Jyy	.	12e/J)yy	.	12e/J)	.	.	.	.	.	.	.	.	.
8F\)	6	.	.	.	8f\)yy	.	12f'/Lyy	.	12f'/L	.	4.D\	.	4.A\	.	4.f\	A-	4.dd\	A-
!	!	!	!	!	!	!	!	!LO:DY:a	!	!LO:DY:a	!	!	!	!	!	!	!	!
.	.	.	.	.	.	.	(12d/yy	p	(12d/	p	.	.	.	.	.	.	.	.
8r	.	.	.	.	8ryy	.	.	.	.	.	.	.	.	.	.	.	.	.
.	.	.	.	.	.	.	12e/J)yy	.	12e/J)	.	.	.	.	.	.	.	.	.
4r	.	.	.	.	4ryy	.	(12f/Lyy	.	(12f/L	.	.	.	.	.	.	.	.	.
.	.	.	.	.	.	.	12e/yy	.	12e/	.	.	.	.	.	.	.	.	.
.	.	.	.	.	.	.	.	.	.	.	8D\	.	8A\	.	8f\	-gnus	8dd\	-gnus
.	.	.	.	.	.	.	12d/J)yy	.	12d/J)	.	.	.	.	.	.	.	.	.
=2	=2	=2	=2	=2	=2	=2	=2	=2	=2	=2	=2	=2	=2	=2	=2	=2	=2	=2
*tremolo	*	*	*	*	*tremolo	*	*tremolo	*	*tremolo	*	*2\right	*	*2\right	*	*2\right	*	*	*
12E\L	7	.	1r	1r	12e\Lyy	.	12e'/Lyy	f	12e'/L	f	2E\	.	2A\	.	2g\	de-	(4.dd\	de-
12E\	.	.	.	.	12e\yy	.	12e'/yy	.	12e'/	.	.	.	.	.	.	.	.	.
12E\J	.	.	.	.	12e\Jyy	.	12e'/Jyy	.	12e'/J	.	.	.	.	.	.	.	.	.
*Xtremolo	*	*	*	*	*Xtremolo	*	*Xtremolo	*	*Xtremolo	*	*	*	*	*	*	*	*	*
12E'\L	6#	.	.	.	12e'\Lyy	.	12e'/Lyy	.	12e'/L	.	.	.	.	.	.	.	.	.
(12E\	.	.	.	.	(12e\yy	.	(12e/yy	.	(12e/	.	.	.	.	.	.	.	.	.
.	.	.	.	.	.	.	.	.	.	.	.	.	.	.	.	.	8cc#X\)	.
12F\J	.	.	.	.	12f\Jyy	.	12f/J)yy	.	12f/J)	.	.	.	.	.	.	.	.	.
8G\)	.	.	.	.	8g\)yy	.	12g'/Lyy	p	12g'/L	p	4E\	.	4A\	.	4g\	-i	4cc#\	-i
.	.	.	.	.	.	.	(12e/yy	.	(12e/	.	.	.	.	.	.	.	.	.
8r	.	.	.	.	8ryy	.	.	.	.	.	.	.	.	.	.	.	.	.
.	.	.	.	.	.	.	12f/Jyy	.	12f/J	.	.	.	.	.	.	.	.	.
4r	.	.	.	.	4ryy	.	12g/Lyy	.	12g/L	.	4G\	.	4A\	.	4g\	qui	4ee\	qui
.	.	.	.	.	.	.	12f/yy	.	12f/	.	.	.	.	.	.	.	.	.
.	.	.	.	.	.	.	12e/J)yy	.	12e/J)	.	.	.	.	.	.	.	.	.
=3	=3	=3	=3	=3	=3	=3	=3	=3	=3	=3	=3	=3	=3	=3	=3	=3	=3	=3
*tremolo	*	*	*	*	*tremolo	*	*tremolo	*	*tremolo	*	*	*	*	*	*	*	*	*
12F'\L	7	.	1r	1r	12f'\Lyy	.	12f/Lyy	f	12f/L	f	2F\	.	2A\	.	2a\	tol-	(4.ee\	tol-
12F'\	.	.	.	.	12f'\yy	.	12f/yy	.	12f/	.	.	.	.	.	.	.	.	.
12F'\J	.	.	.	.	12f'\Jyy	.	12f/Jyy	.	12f/J	.	.	.	.	.	.	.	.	.
*Xtremolo	*	*	*	*	*Xtremolo	*	*Xtremolo	*	*Xtremolo	*	*	*	*	*	*	*	*	*
12F'\L	6:	.	.	.	12f'\Lyy	.	12f'/Lyy	.	12f'/L	.	.	.	.	.	.	.	.	.
(12F\	.	.	.	.	(12f\yy	.	(12f/yy	.	(12f/	.	.	.	.	.	.	.	.	.
.	.	.	.	.	.	.	.	.	.	.	.	.	.	.	.	.	8dd\)	.
12G\J	.	.	.	.	12g\Jyy	.	12g/J)yy	.	12g/J)	.	.	.	.	.	.	.	.	.
8A'\)	.	.	.	.	8a'\)yy	.	12a'/Lyy	p	12a'/L	p	4F\	.	4A\	.	4a\	-lis	4dd\	-lis
.	.	.	.	.	.	.	(12f/yy	.	(12f/	.	.	.	.	.	.	.	.	.
8r	.	.	.	.	8ryy	.	.	.	.	.	.	.	.	.	.	.	.	.
.	.	.	.	.	.	.	12g/Jyy	.	12g/J	.	.	.	.	.	.	.	.	.
4r	.	.	.	.	4ryy	.	12a/Lyy	.	12a/L	.	4A\	.	4f\	.	4f\	pec-	4ccny\	pec-
.	.	.	.	.	.	.	12g/yy	.	12g/	.	.	.	.	.	.	.	.	.
.	.	.	.	.	.	.	12f/J)yy	.	12f/J)	.	.	.	.	.	.	.	.	.
=4	=4	=4	=4	=4	=4	=4	=4	=4	=4	=4	=4	=4	=4	=4	=4	=4	=4	=4
*	*	*	*	*	*	*	*	*	*	*	*	*	*	*	*	*	*2\right	*
12r	.	.	1r	1r	12ryy	.	8f/	.	8dd\	.	2B-\	.	2f\	.	2f\	-ca-	2dd\	-ca-
12BB-/L	3	p	.	.	12B-/Lyy	p	.	.	.	.	.	.	.	.	.	.	.	.
.	.	.	.	.	.	.	8r	.	8r	.	.	.	.	.	.	.	.	.
12C/J	.	.	.	.	12c/Jyy	.	.	.	.	.	.	.	.	.	.	.	.	.
12D/L	.	.	.	.	12d\Lyy	.	4r	.	4r	.	.	.	.	.	.	.	.	.
12C/	.	.	.	.	12c\yy	.	.	.	.	.	.	.	.	.	.	.	.	.
12BB-/J	.	.	.	.	12B-\Jyy	.	.	.	.	.	.	.	.	.	.	.	.	.
12r	.	.	.	.	12ryy	.	8f/	.	8cc\	.	2A\	.	2f\	.	2f\	-ta	2cc\	-ta
12AA/L	6	.	.	.	12A/Lyy	.	.	.	.	.	.	.	.	.	.	.	.	.
.	.	.	.	.	.	.	8r	.	8r	.	.	.	.	.	.	.	.	.
12BB-/J	.	.	.	.	12B-/Jyy	.	.	.	.	.	.	.	.	.	.	.	.	.
12C/L	.	.	.	.	12c/Lyy	.	4r	.	4r	.	.	.	.	.	.	.	.	.
12BB-/	.	.	.	.	12B-/yy	.	.	.	.	.	.	.	.	.	.	.	.	.
12AA/J	.	.	.	.	12A/Jyy	.	.	.	.	.	.	.	.	.	.	.	.	.
=5	=5	=5	=5	=5	=5	=5	=5	=5	=5	=5	=5	=5	=5	=5	=5	=5	=5	=5
12r	.	.	1r	1r	12ryy	.	8f/	.	8b-\	.	2G\	.	2B-\	.	(4f\	mun-	2b-\	mun-
12BB-/L	7	.	.	.	12B-/Lyy	.	.	.	.	.	.	.	.	.	.	.	.	.
.	.	.	.	.	.	.	8r	.	8r	.	.	.	.	.	.	.	.	.
12C/J	6	.	.	.	12c/Jyy	.	.	.	.	.	.	.	.	.	.	.	.	.
12D/L	.	.	.	.	12d\Lyy	.	8e/	.	8b-\	.	.	.	.	.	4e\)	.	.	.
12C/	.	.	.	.	12c\yy	.	.	.	.	.	.	.	.	.	.	.	.	.
.	.	.	.	.	.	.	8r	.	8r	.	.	.	.	.	.	.	.	.
12BB-/J	.	.	.	.	12B-\Jyy	.	.	.	.	.	.	.	.	.	.	.	.	.
4FF'/	.	.	.	.	4F'/yy	.	4f/	.	4a\	.	4F\	.	4c\	.	4f\	-di	4a\	-di
4r	.	.	.	.	4ryy	.	4r	.	4r	.	8.E-X\	.	8.c\	.	8.f\	mi-	8.a\	mi-
.	.	.	.	.	.	.	.	.	.	.	16E-\	.	16c\	.	(16f\	-se-	16a\	-se-
=6	=6	=6	=6	=6	=6	=6	=6	=6	=6	=6	=6	=6	=6	=6	=6	=6	=6	=6
12r	.	sf	1r	1r	12ryy	sf	12r	.	12r	.	4D\	.	4B-\	.	4f\	-re-	4b-\	-re-
12D\L	6	.	.	.	12d\Lyy	.	12f/L	.	12b-\L	.	.	.	.	.	.	.	.	.
12D\J	.	.	.	.	12d\Jyy	.	12f/J	.	12b-\J	.	.	.	.	.	.	.	.	.
12D\L	.	.	.	.	12d\Lyy	.	12f/L	.	12b-\L	.	4D\	.	4B-\	.	4f\)	-re	4b-\	-re
12D\	.	.	.	.	12d\yy	.	12f/	.	12b-\	.	.	.	.	.	.	.	.	.
12D\J	.	.	.	.	12d\Jyy	.	12f/J	.	12b-\J	.	.	.	.	.	.	.	.	.
4D-X\	6n 5-	.	.	.	4d-X\yy	.	4f/	.	4a-X/ 4bn	.	4r	.	4r	.	4r	.	4r	.
!	!	!	!	!	!	!	!	!	!	!	!	!	!	!	!LO:TX:a:t=sic:s=8.a-	!	!	!
4r	.	.	.	.	4ryy	.	4r	.	4r	.	8.D-X\	.	8.f\	.	8.a\	mi-	8.bn\	mi-
!	!	!	!	!	!	!	!	!	!	!	!	!	!	!	!LO:TX:a:t=sic:s=16a-	!	!	!
.	.	.	.	.	.	.	.	.	.	.	16D-\	.	16f\	.	16a\	-se-	16b\	-se-
=7	=7	=7	=7	=7	=7	=7	=7	=7	=7	=7	=7	=7	=7	=7	=7	=7	=7	=7
*	*	*	*	*^	*	*	*	*	*	*	*	*	*	*	*	*	*	*
*	*	*	*	*	*	*	*	*	*	*tuplet	*	*	*	*	*	*	*	*	*
!	!	!	!	!	!	!	!	!	!	!LO:TUP:a	!	!	!	!	!	!	!	!	!
8C/	6 4	.	4r	4r	4ryy	8c\	.	12r	.	(12r	.	4C/	.	4f\	.	4an\	-re-	4cc\	-re-
.	.	.	.	.	.	.	.	(12f/L	.	12an\L	.	.	.	.	.	.	.	.	.
8r	.	.	.	.	.	8r	.	.	.	.	.	.	.	.	.	.	.	.	.
*	*	*	*	*	*	*	*	*	*	*Xtuplet	*	*	*	*	*	*	*	*	*
.	.	.	.	.	.	.	.	12a/J	.	12cc\J)	.	.	.	.	.	.	.	.	.
8C/	.	.	4A/ 4f	(4ff/	4a\	8c\	.	12cc/L	.	12ff\L	.	4C/	.	4c\	.	4a\	-re	4ff\	-re
.	.	.	.	.	.	.	.	12a/	.	12cc\	.	.	.	.	.	.	.	.	.
8r	.	.	.	.	.	8r	.	.	.	.	.	.	.	.	.	.	.	.	.
.	.	.	.	.	.	.	.	12f/J)	.	12aa\J	.	.	.	.	.	.	.	.	.
*	*	*	*	*	*2\right	*	*	*	*	*	*	*	*	*	*	*	*	*	*
8C/	7 4	.	((2c/ 2g	4ff/	2g\	8c\	.	12cc/L	.	12bb-\L	.	2C/	.	2B-\	.	2g\	no-	(4ff\	no-
.	.	.	.	.	.	.	.	12b-/	.	12gg\	.	.	.	.	.	.	.	.	.
8r	.	.	.	.	.	8r	.	.	.	.	.	.	.	.	.	.	.	.	.
.	.	.	.	.	.	.	.	12g/J	.	12ff\J	.	.	.	.	.	.	.	.	.
8C/	3	.	.	4een/)	.	8c\	.	12cc/L	.	12bb-\L	.	.	.	.	.	.	.	4een\)	.
.	.	.	.	.	.	.	.	12b-/	.	12gg\	.	.	.	.	.	.	.	.	.
8r	.	.	.	.	.	8r	.	.	.	.	.	.	.	.	.	.	.	.	.
.	.	.	.	.	.	.	.	12g/J	.	12ee\J	.	.	.	.	.	.	.	.	.
=8	=8	=8	=8	=8	=8	=8	=8	=8	=8	=8	=8	=8	=8	=8	=8	=8	=8	=8	=8
!!LO:PB:g=original
*	*	*	*2\right	*	*	*	*	*	*	*	*	*	*	*	*	*	*	*	*
8FF/	.	.	2f\)) 2a	2ff/	2a\	8F/yy	.	12a/L	.	(12ff\L	.	2FF/	.	2A\	.	2f\	.	2ff\	-bis
.	.	.	.	.	.	.	.	12f/	.	12cc\	.	.	.	.	.	.	.	.	.
8r	.	.	.	.	.	8ryy	.	.	.	.	.	.	.	.	.	.	.	.	.
.	.	.	.	.	.	.	.	12cc/J	.	12aa\J	.	.	.	.	.	.	.	.	.
8F\	.	.	.	.	.	8f\yy	.	12f/L	.	12aa\L	.	.	.	.	.	.	.	.	.
.	.	.	.	.	.	.	.	12a/	.	12ff\	.	.	.	.	.	.	.	.	.
8r	.	.	.	.	.	8ryy	.	.	.	.	.	.	.	.	.	.	.	.	.
.	.	.	.	.	.	.	.	12f/J	.	12cc\J)	.	.	.	.	.	.	.	.	.
8C/	7 5	.	2c\ 2g	2ee/	2b-\	8c\yy	.	12e/L	.	12cc\L	.	2r	.	2r	.	2r	.	2r	.
.	.	.	.	.	.	.	.	12g/	.	12dd\	.	.	.	.	.	.	.	.	.
8r	.	.	.	.	.	8ryy	.	.	.	.	.	.	.	.	.	.	.	.	.
.	.	.	.	.	.	.	.	12cc/J	.	12cc\J	.	.	.	.	.	.	.	.	.
8c\	.	.	.	.	.	8cc\yy	.	12e/L	.	12cc\L	.	.	.	.	.	.	.	.	.
.	.	.	.	.	.	.	.	12g/	.	12b-\	.	.	.	.	.	.	.	.	.
8r	.	.	.	.	.	8ryy	.	.	.	.	.	.	.	.	.	.	.	.	.
.	.	.	.	.	.	.	.	12e/J	.	12g\J	.	.	.	.	.	.	.	.	.
*	*	*	*	*v	*v	*	*	*	*	*	*	*	*	*	*	*	*	*	*
=9	=9	=9	=9	=9	=9	=9	=9	=9	=9	=9	=9	=9	=9	=9	=9	=9	=9	=9
!	!	!	!	!	!	!	!LO:TX:a:t=problem:takty 9-10 i pół 11.  mają znaki powtórki i notatkę "Col Primo"	!	!	!	!	!	!	!	!	!	!	!
*tremolo	*	*	*	*	*tremolo	*	*tremolo	*	*tremolo	*	*	*	*	*	*	*	*	*
!LO:N:vis=4.	!	!	!	!	!LO:N:vis=4.	!	!LO:N:vis=4.	!	!LO:N:vis=4.	!	!	!	!	!	!	!	!	!
12FF/L	.	.	2f\ 2a	2a\ 2ff	12F/Lyy	.	12f/Lyy	.	12f/L	.	2r	.	2r	.	2r	.	2r	.
12FF/	.	.	.	.	12F/yy	.	12f/yy	.	12f/	.	.	.	.	.	.	.	.	.
12FF/J	.	.	.	.	12F/Jyy	.	12f/Jyy	.	12f/J	.	.	.	.	.	.	.	.	.
*Xtremolo	*	*	*	*	*Xtremolo	*	*Xtremolo	*	*Xtremolo	*	*	*	*	*	*	*	*	*
12FF/L	.	.	.	.	12F/Lyy	.	12f/Lyy	.	12f/L	.	.	.	.	.	.	.	.	.
(12FF/	.	.	.	.	(12F/yy	.	12f/yy	.	12f/	.	.	.	.	.	.	.	.	.
12GG/J)	.	.	.	.	12G/J)yy	.	12g/Jyy	.	12g/J	.	.	.	.	.	.	.	.	.
8AA/	6	.	2r	2r	8A/yy	.	(12a/Lyy	.	(12a/L	.	4.F\	.	4.c\	.	4.a\	.	4.ff\	A-
.	.	.	.	.	.	.	12f/yy	.	12f/	.	.	.	.	.	.	.	.	.
8r	.	.	.	.	8ryy	.	.	.	.	.	.	.	.	.	.	.	.	.
.	.	.	.	.	.	.	12g/J)yy	.	12g/J)	.	.	.	.	.	.	.	.	.
4r	.	.	.	.	4ryy	.	12a/Lyy	.	12a/L	.	.	.	.	.	.	.	.	.
.	.	.	.	.	.	.	12g/yy	.	12g/	.	.	.	.	.	.	.	.	.
.	.	.	.	.	.	.	.	.	.	.	8F\	.	8c\	.	8a\	.	8ff\	-gnus
.	.	.	.	.	.	.	12f/Jyy	.	12f/J	.	.	.	.	.	.	.	.	.
=10	=10	=10	=10	=10	=10	=10	=10	=10	=10	=10	=10	=10	=10	=10	=10	=10	=10	=10
*tremolo	*	*	*	*	*tremolo	*	*tremolo	*	*tremolo	*	*	*	*	*	*	*	*	*
!LO:N:vis=4.	!	!	!	!LO:N:vis=4.	!	!	!LO:N:vis=4.	!	!LO:N:vis=4.	!	!	!	!	!	!	!	!	!
12GG'/L	7	.	1r	1r	12G'/Lyy	.	12g'/Lyyy	.	12g'/L	.	2G\	.	2c\	.	2b-\	.	(4.ff\	De-
12GG'/	.	.	.	.	12G'/yy	.	12g'/yy	.	12g'/	.	.	.	.	.	.	.	.	.
12GG'/J	.	.	.	.	12G'/Jyy	.	12g'/Jyy	.	12g'/J	.	.	.	.	.	.	.	.	.
*Xtremolo	*	*	*	*	*Xtremolo	*	*Xtremolo	*	*Xtremolo	*	*	*	*	*	*	*	*	*
12GG'/L	.	.	.	.	12G'/Lyy	.	12g/Lyy	.	12g/L	.	.	.	.	.	.	.	.	.
(12GG/	.	.	.	.	(12G/yy	.	(12g/yy	.	(12g/	.	.	.	.	.	.	.	.	.
.	.	.	.	.	.	.	.	.	.	.	.	.	.	.	.	.	8ee\)	.
12AA/J)	.	.	.	.	12A/J)yy	.	12b-/J)yy	.	12b-/J)	.	.	.	.	.	.	.	.	.
8BB-/	6:	.	.	.	8B-/yy	.	12b-/Lyy	.	12b-/L	.	4G\	.	4c\	.	4b-\	.	4ee\	-i
.	.	.	.	.	.	.	12g/yy	.	12g/	.	.	.	.	.	.	.	.	.
8r	.	.	.	.	8ryy	.	.	.	.	.	.	.	.	.	.	.	.	.
.	.	.	.	.	.	.	12a/Jyy	.	12a/J	.	.	.	.	.	.	.	.	.
4r	.	.	.	.	4ryy	.	12b-/Lyy	.	12b-/L	.	4B-\	.	4c\	.	4b-\	.	4gg\	qui
.	.	.	.	.	.	.	12b-/yy	.	12b-/	.	.	.	.	.	.	.	.	.
.	.	.	.	.	.	.	12g/Jyy	.	12g/J	.	.	.	.	.	.	.	.	.
=11	=11	=11	=11	=11	=11	=11	=11	=11	=11	=11	=11	=11	=11	=11	=11	=11	=11	=11
*tremolo	*	*	*	*	*tremolo	*	*tremolo	*	*tremolo	*	*	*	*	*	*	*	*	*
!LO:N:vis=4.	!	!	!	!LO:N:vis=4.	!	!	!	!	!	!	!	!	!	!	!	!	!	!
12AA'/L	7	.	1r	1r	12A'/Lyy	.	12a'/Lyy	.	12a'/L	.	2A\	.	2c\	.	2cc\	.	(4.gg\	tol-
12AA'/	.	.	.	.	12A'/yy	.	12a'/yy	.	12a'/	.	.	.	.	.	.	.	.	.
12AA'/J	.	.	.	.	12A'/Jyy	.	12a'/Jyy	.	12a'/J	.	.	.	.	.	.	.	.	.
*Xtremolo	*	*	*	*	*Xtremolo	*	*Xtremolo	*	*Xtremolo	*	*	*	*	*	*	*	*	*
12AA'/L	6	.	.	.	12A'/Lyy	.	12a/Lyy	.	12a/L	.	.	.	.	.	.	.	.	.
(12AA/	.	.	.	.	(12A/yy	.	12a/yy	.	12a/	.	.	.	.	.	.	.	.	.
.	.	.	.	.	.	.	.	.	.	.	.	.	.	.	.	.	8ff\)	.
12BB-/J)	.	.	.	.	12B-/J)yy	.	12b-/Jyy	.	12b-/J	.	.	.	.	.	.	.	.	.
8C/	.	.	.	.	8c\yy	.	12cc\	.	12cc\L	.	4A\	.	4c\	.	4cc\	.	4ff\	-lis
.	.	.	.	.	.	.	12e/L	.	12ee\	.	.	.	.	.	.	.	.	.
8r	.	.	.	.	8ryy	.	.	.	.	.	.	.	.	.	.	.	.	.
.	.	.	.	.	.	.	12f/J	.	12ff\J	.	.	.	.	.	.	.	.	.
8C#X/	6 5	.	.	.	8c#X\yy	.	12g/L	.	12gg\L	.	4C#X/	.	4A\	.	4g\	.	4ee\	pec-
.	.	.	.	.	.	.	12f/	.	12ff\	.	.	.	.	.	.	.	.	.
8r	.	.	.	.	8ryy	.	.	.	.	.	.	.	.	.	.	.	.	.
.	.	.	.	.	.	.	12e/J	.	12ee\J	.	.	.	.	.	.	.	.	.
=12	=12	=12	=12	=12	=12	=12	=12	=12	=12	=12	=12	=12	=12	=12	=12	=12	=12	=12
!	!	!	!	!	!	!	!	!	!	!	!	!	!LO:TX:a:t=sic:s=2A	!	!	!	!	!
12r	.	.	1r	1r	12ryy	.	8d/ 8a	.	8ff\	.	2D/	.	2G/	.	2f\	.	2dd\	-ca-
12D\L	.	.	.	.	12d\Lyy	.	.	.	.	.	.	.	.	.	.	.	.	.
.	.	.	.	.	.	.	8r	.	8r	.	.	.	.	.	.	.	.	.
12E\J	.	.	.	.	12e\Jyy	.	.	.	.	.	.	.	.	.	.	.	.	.
12F\L	.	.	.	.	12f\Lyy	.	4r	.	4r	.	.	.	.	.	.	.	.	.
12E\	.	.	.	.	12e\yy	.	.	.	.	.	.	.	.	.	.	.	.	.
12D\J	.	.	.	.	12d\Jyy	.	.	.	.	.	.	.	.	.	.	.	.	.
12r	.	.	.	.	12ryy	.	8d/ 8a	.	8ff#X\	.	2Cn/	.	2A/	.	2f#X\	.	2dd\	-ta
12C\L	.	.	.	.	12cn\L	.	.	.	.	.	.	.	.	.	.	.	.	.
.	.	.	.	.	.	.	8r	.	8r	.	.	.	.	.	.	.	.	.
12D\J	4# 2	.	.	.	12d\Jyy	.	.	.	.	.	.	.	.	.	.	.	.	.
12E-X\L	.	.	.	.	12e-X\Lyy	.	4r	.	4r	.	.	.	.	.	.	.	.	.
12D\	.	.	.	.	12d\yy	.	.	.	.	.	.	.	.	.	.	.	.	.
12C\J	.	.	.	.	12c\Jyy	.	.	.	.	.	.	.	.	.	.	.	.	.
=13	=13	=13	=13	=13	=13	=13	=13	=13	=13	=13	=13	=13	=13	=13	=13	=13	=13	=13
12r	.	.	1r	1r	12ryy	.	8dd\	.	8gg\	.	2BB-/	.	2d\	.	4g\	.	2dd\	mun-
12BB-/L	6	.	.	.	12B-/Lyy	.	.	.	.	.	.	.	.	.	.	.	.	.
.	.	.	.	.	.	.	8r	.	8r	.	.	.	.	.	.	.	.	.
12C/J	.	.	.	.	12c/Jyy	.	.	.	.	.	.	.	.	.	.	.	.	.
12D/L	4#:	.	.	.	12d\Lyy	.	8dd\	.	8gg#X\	.	.	.	.	.	4g#X\	.	.	.
12C/	.	.	.	.	12c\yy	.	.	.	.	.	.	.	.	.	.	.	.	.
.	.	.	.	.	.	.	8r	.	8r	.	.	.	.	.	.	.	.	.
12BB-/J	.	.	.	.	12B-\Jyy	.	.	.	.	.	.	.	.	.	.	.	.	.
4AA/	#	.	.	.	4A/yy	.	4cc#X\ 4ee	.	4aa\	.	4AA/	.	4e\	.	4a\	.	4cc#X\	-di
4r	.	.	.	.	4ryy	.	4r	.	4r	.	8.G\	.	8.e\	.	8.a\	.	8.cc#\	mi-
.	.	.	.	.	.	.	.	.	.	.	16G\	.	16e\	.	16a\	.	16cc#\	-se-
=14	=14	=14	=14	=14	=14	=14	=14	=14	=14	=14	=14	=14	=14	=14	=14	=14	=14	=14
12r	.	.	1r	1r	12ryy	.	12ryy	.	12r	.	4F\	.	4d\	.	4a\	.	4dd\	-re-
12FF/L	6	.	.	.	12F/Lyy	.	12d/L 12a	.	12d/L 12dd	.	.	.	.	.	.	.	.	.
12FF/J	.	.	.	.	12F/Jyy	.	12d/J 12a	.	12d/J 12dd	.	.	.	.	.	.	.	.	.
*	*	*	*	*	*	*	*tremolo	*	*tremolo	*	*	*	*	*	*	*	*	*
12FF/L	.	.	.	.	12F/Lyy	.	12d/L 12a	.	12d'/L 12dd	.	4F\	.	4d\	.	4a\	.	4dd\	-re
12FF/	.	.	.	.	12F/yy	.	12d/ 12a	.	12d'/ 12dd	.	.	.	.	.	.	.	.	.
12FF/J	.	.	.	.	12F/Jyy	.	12d/J 12a	.	12d'/J 12dd	.	.	.	.	.	.	.	.	.
*	*	*	*	*	*	*	*Xtremolo	*	*Xtremolo	*	*	*	*	*	*	*	*	*
4FF#X/	6 5	.	.	.	4F#X/yy	.	4d/ 4a	.	4d/ 4cc	.	4r	.	4r	.	4r	.	4r	.
4r	.	.	.	.	4ryy	.	4r	.	4r	.	8.F#X\	.	8.d\	.	8.a\	.	8.ccn\	mi-
.	.	.	.	.	.	.	.	.	.	.	16F#\	.	16d\	.	16a\	.	16cc\	-se-
=15	=15	=15	=15	=15	=15	=15	=15	=15	=15	=15	=15	=15	=15	=15	=15	=15	=15	=15
!!LO:PB:g=original
*	*	*	*^	*^	*	*	*	*	*	*	*	*	*	*	*	*	*	*
8GG/	.	.	4r	4ryy	4r	4ryy	8G/yy	.	12r	.	12r	.	4G\	.	4d\	.	4g\	.	4b-\	-re-
.	.	.	.	.	.	.	.	.	12g\L	.	12b-\L	.	.	.	.	.	.	.	.	.
8r	.	.	.	.	.	.	8ryy	.	.	.	.	.	.	.	.	.	.	.	.	.
.	.	.	.	.	.	.	.	.	12b-\J	.	12dd\J	.	.	.	.	.	.	.	.	.
8BB-/	6	.	4g/	4g\	4gg/	4b-\	8B-/yy	.	12dd\L	.	12gg\L	.	4B-\	.	4d\	.	4g\	.	4b-\	-re
.	.	.	.	.	.	.	.	.	12b-\	.	12dd\	.	.	.	.	.	.	.	.	.
8r	.	.	.	.	.	.	8ryy	.	.	.	.	.	.	.	.	.	.	.	.	.
.	.	.	.	.	.	.	.	.	12g\J	.	12bb-\J	.	.	.	.	.	.	.	.	.
!	!	!	!	!	!	!	!	!	!LO:TX:a:t=problem:mixed beam	!	!	!	!	!	!	!	!	!	!	!
8D\	4	.	2a/	2a\	4gg/	2a\	8d\yy	.	12d/L	.	12aa\L	.	2d\	.	2d\	.	4g\	.	2a\	no-
.	.	.	.	.	.	.	.	.	12dd\	.	12gg\	.	.	.	.	.	.	.	.	.
8r	.	.	.	.	.	.	8ryy	.	.	.	.	.	.	.	.	.	.	.	.	.
.	.	.	.	.	.	.	.	.	12cc\J	.	12dd\J	.	.	.	.	.	.	.	.	.
!	!	!	!	!	!	!	!	!	!LO:TX:a:t=problem:mixed beam	!	!	!	!	!	!	!	!	!	!	!
8D\	#	.	.	.	4ff#X/	.	8d\yy	.	12d/L	.	12aa\L	.	.	.	.	.	4f#X\	.	.	.
.	.	.	.	.	.	.	.	.	12dd\	.	12ff#X\	.	.	.	.	.	.	.	.	.
8r	.	.	.	.	.	.	8ryy	.	.	.	.	.	.	.	.	.	.	.	.	.
.	.	.	.	.	.	.	.	.	12cc\J	.	12dd\J	.	.	.	.	.	.	.	.	.
*	*	*	*v	*v	*	*	*	*	*	*	*	*	*	*	*	*	*	*	*	*
=16	=16	=16	=16	=16	=16	=16	=16	=16	=16	=16	=16	=16	=16	=16	=16	=16	=16	=16	=16
8GG/	.	.	2g\	2gg/	2b-\	8G/yy	.	(12b-\L	.	(12dd\L	.	2G\	.	2d\	.	2g\	.	2b-\	-bis
.	.	.	.	.	.	.	.	12g\	.	12b-\	.	.	.	.	.	.	.	.	.
8r	.	.	.	.	.	8ryy	.	.	.	.	.	.	.	.	.	.	.	.	.
.	.	.	.	.	.	.	.	12b-\J	.	12gg\J	.	.	.	.	.	.	.	.	.
8G\	.	.	.	.	.	8g\yy	.	12b-/L	.	12gg\L	.	.	.	.	.	.	.	.	.
.	.	.	.	.	.	.	.	12g/	.	12dd\	.	.	.	.	.	.	.	.	.
8r	.	.	.	.	.	8ryy	.	.	.	.	.	.	.	.	.	.	.	.	.
.	.	.	.	.	.	.	.	12d/J)	.	12b-\J	.	.	.	.	.	.	.	.	.
*	*	*	*	*	*	*	*	*tremolo	*	*	*	*	*	*	*	*	*	*	*
8FF/	6 4 3-	.	2f\	2aa-X/	2dd\	8F/yy	.	12A-X/L 12d	.	12aa-X\L	.	2r	.	2r	.	2r	.	2r	.
.	.	.	.	.	.	.	.	12A-/ 12d	.	12ffn\	.	.	.	.	.	.	.	.	.
8r	.	.	.	.	.	8ryy	.	.	.	.	.	.	.	.	.	.	.	.	.
.	.	.	.	.	.	.	.	12A-/ 12d	.	12cc\J	.	.	.	.	.	.	.	.	.
8F\	.	.	.	.	.	8f\yy	.	12A-/ 12d	.	12b-\L	.	.	.	.	.	.	.	.	.
.	.	.	.	.	.	.	.	12A-/ 12d	.	12cc\	.	.	.	.	.	.	.	.	.
8r	.	.	.	.	.	8ryy	.	.	.	.	.	.	.	.	.	.	.	.	.
.	.	.	.	.	.	.	.	12A-/J 12d	.	12a-X\J)	.	.	.	.	.	.	.	.	.
*	*	*	*	*v	*v	*	*	*	*	*	*	*	*	*	*	*	*	*	*
=17	=17	=17	=17	=17	=17	=17	=17	=17	=17	=17	=17	=17	=17	=17	=17	=17	=17	=17
*	*	*	*	*	*	*	*Xtremolo	*	*	*	*	*	*	*	*	*	*	*
12E-X\L	.	.	1e-X 1g	1ee- 1gg	12e-X\Lyy	.	12B-/L 12g	.	12g\L 12ee-X	.	2r	.	2r	.	2r	.	2r	.
12E-\	.	.	.	.	12e-\yy	.	12B-/ 12g	.	12g\ 12ee-	.	.	.	.	.	.	.	.	.
12E-\J	.	.	.	.	12e-\Jyy	.	12B-/J 12g	.	12g\J 12ee-	.	.	.	.	.	.	.	.	.
*	*	*	*	*	*	*	*tremolo	*	*tremolo	*	*	*	*	*	*	*	*	*
!	!	!	!	!	!	!	!	!	!LO:N:vis=4.	!	!	!	!	!	!	!	!	!
12E-\L	.	.	.	.	12e-\Lyy	.	12B-/L 12g	.	12g\L 12ee-	.	.	.	.	.	.	.	.	.
12E-\	.	.	.	.	12e-\yy	.	12B-/ 12g	.	12g\ 12ee-	.	.	.	.	.	.	.	.	.
12E-\J	.	.	.	.	12e-\Jyy	.	12B-/J 12g	.	12g\J 12ee-	.	.	.	.	.	.	.	.	.
*	*	*	*	*	*	*	*	*	*2\right	*	*	*	*	*	*	*	*	*
!	!	!	!	!	!	!	!	!	!LO:N:vis=2.	!	!	!	!	!	!	!	!	!
(12G\L	.	.	.	.	(12g\Lyy	.	12B-/L 12g	.	12g\L 12ee-	.	4.e-X\	.	4.e-X\	.	4.ee-X\	.	4.ee-X\	A-
12E-\	.	.	.	.	12e-\yy	.	12B-/ 12g	.	12g\ 12ee-	.	.	.	.	.	.	.	.	.
12F\J	.	.	.	.	12f\Jyy	.	12B-/ 12g	.	12g\ 12ee-	.	.	.	.	.	.	.	.	.
12G\L	.	.	.	.	12g\Lyy	.	12B-/ 12g	.	12g\ 12ee-	.	.	.	.	.	.	.	.	.
12F\	.	.	.	.	12f\yy	.	12B-/ 12g	.	12g\ 12ee-	.	.	.	.	.	.	.	.	.
.	.	.	.	.	.	.	.	.	.	.	8e-\	.	8e-\	.	8ee-\	.	8ee-\	-gnus
12E-\J)	.	.	.	.	12e-\J)yy	.	12B-/J 12g	.	12g\J 12ee-	.	.	.	.	.	.	.	.	.
=18	=18	=18	=18	=18	=18	=18	=18	=18	=18	=18	=18	=18	=18	=18	=18	=18	=18	=18
*tremolo	*	*	*rep	*rep	*tremolo	*	*	*	*	*	*	*	*	*	*	*	*	*
!	!	!	!	!	!	!	!	!	!	!LO:N:vis=4.	!	!	!	!	!	!	!	!
12C/L	.	.	1e-X 1g	1ee- 1gg	12c\Lyy	.	12e-X/L 12cc	.	12ee-X\L 12gg	.	4e-X\	.	4e-X\	.	4ee-X\	.	4ee-X\	De-
12C/	.	.	.	.	12c\yy	.	12e-/ 12cc	.	12ee-\ 12gg	.	.	.	.	.	.	.	.	.
12C/J	.	.	.	.	12c\Jyy	.	12e-/J 12cc	.	12ee-\J 12gg	.	.	.	.	.	.	.	.	.
*Xtremolo	*	*	*	*	*Xtremolo	*	*	*	*	*	*	*	*	*	*	*	*	*
!	!	!	!	!	!	!	!	!	!	!	!LO:TX:a:t=sic:s=4E-	!	!LO:TX:a:t=sic:s=4E-	!	!LO:TX:a:t=sic:s=4e-	!	!LO:TX:a:t=sic:s=4e-	!
!	!	!	!	!	!	!	!	!	!LO:N:vis=4.	!	!	!	!	!	!	!	!	!
12C/L	.	.	.	.	12c\Lyy	.	12e-/L 12cc	.	12ee-\L 12gg	.	4E\	.	4E/	.	4e\	.	4e/	-i
12C/	.	.	.	.	12c\yy	.	12e-/ 12cc	.	12ee-\ 12gg	.	.	.	.	.	.	.	.	.
12D/J	.	.	.	.	12d\Jyy	.	12e-/J 12cc	.	12ee-\J 12gg	.	.	.	.	.	.	.	.	.
!	!	!	!	!	!	!	!	!	!LO:N:vis=2.	!	!	!	!	!	!	!	!	!
12E-X\L	.	.	.	.	12e-X\Lyy	.	12e-/L 12cc	.	12ee-\L 12gg	.	4r	.	4r	.	4r	.	4r	.
12C\	.	.	.	.	12c\yy	.	12e-/ 12cc	.	12ee-\ 12gg	.	.	.	.	.	.	.	.	.
12D\J	.	.	.	.	12d\Jyy	.	12e-/ 12cc	.	12ee-\ 12gg	.	.	.	.	.	.	.	.	.
12E-\L	.	.	.	.	12e-\Lyy	.	12e-/ 12cc	.	12ee-\ 12gg	.	4e-X\	.	4e-X\	.	4ee-X\	.	4ee-X\	qui
12D\	.	.	.	.	12d\yy	.	12e-/ 12cc	.	12ee-\ 12gg	.	.	.	.	.	.	.	.	.
12C\J	.	.	.	.	12c\Jyy	.	12e-/J 12cc	.	12ee-\J 12gg	.	.	.	.	.	.	.	.	.
*	*	*	*Xrep	*Xrep	*	*	*	*	*	*	*	*	*	*	*	*	*	*
=19	=19	=19	=19	=19	=19	=19	=19	=19	=19	=19	=19	=19	=19	=19	=19	=19	=19	=19
*tremolo	*	*	*	*	*tremolo	*	*2\right	*	*	*	*	*	*	*	*	*	*	*
(12AAn/L	7_ 5_	.	1c 1cc	1ee- 1gg-X	12An/Lyy	.	12g-X\L 12ee-X	.	12ee-X\L 12ccc	.	4e-X\	.	4e-X\	.	4ee-X\	.	4ee-X\	tol-
12AA/	.	.	.	.	12A/yy	.	12g-\ 12ee-	.	12ee-\ 12ccc	.	.	.	.	.	.	.	.	.
12AA/J	.	.	.	.	12A/Jyy	.	12g-\ 12ee-	.	12ee-\J 12ccc	.	.	.	.	.	.	.	.	.
*Xtremolo	*	*	*	*	*Xtremolo	*	*	*	*	*	*	*	*	*	*	*	*	*
!	!	!	!	!	!	!	!	!	!	!	!	!	!LO:TX:a:t=sic:s=4E-	!	!LO:TX:a:t=sic:s=4e-	!	!LO:TX:a:t=sic:s=4e-	!
12AA/L	.	.	.	.	12A/Lyy	.	12g-\ 12ee-	.	12ee-\L 12ccc	.	4E-X\	.	4E/	.	4e\	.	4e/	-lis
12AA/	.	.	.	.	12A/yy	.	12g-\ 12ee-	.	12ee-\ 12ccc	.	.	.	.	.	.	.	.	.
12BB-/J	.	.	.	.	12B-/Jyy	.	12g-\J 12ee-	.	12ee-\J 12ccc	.	.	.	.	.	.	.	.	.
12C/L	.	.	.	.	12c/Lyy	.	12g-\L 12ee-	.	12ee-\L 12ccc	.	4r	.	4r	.	4r	.	4r	.
12AA/	.	.	.	.	12A/yy	.	12g-\ 12ee-	.	12ee-\ 12ccc	.	.	.	.	.	.	.	.	.
12BB-/J	.	.	.	.	12B-/Jyy	.	12g-\ 12ee-	.	12ee-\ 12ccc	.	.	.	.	.	.	.	.	.
12C/L	.	.	.	.	12c/Lyy	.	12g-\ 12ee-	.	12ee-\ 12ccc	.	4AAn/	.	4c\	.	4f#X\	.	4ee-X\	pec-
12BB-/	.	.	.	.	12B-/yy	.	12g-\ 12ee-	.	12ee-\ 12ccc	.	.	.	.	.	.	.	.	.
12AA/J)	.	.	.	.	12A/Jyy	.	12g-\J 12ee-	.	12ee-\J 12ccc	.	.	.	.	.	.	.	.	.
=20	=20	=20	=20	=20	=20	=20	=20	=20	=20	=20	=20	=20	=20	=20	=20	=20	=20	=20
*	*	*	*	*^	*	*	*	*	*	*	*	*	*	*	*	*	*	*
*tremolo	*	*	*	*	*	*tremolo	*	*	*	*	*	*	*	*	*	*	*	*	*
!	!	!	!	!LO:TX:a:t=sic:s=2ffn	!	!	!	!	!	!	!	!	!	!	!	!	!	!LO:TX:a:t=sic:s=2ee-	!
12BB-/L	6 4-	.	1g	2.gg/	2ee\	12B-/Lyy	.	12gn\L 12ee-X	.	12gg\L 12bb-	.	2BB-/	.	2B-\	.	(2.g\	.	2ee\	-ca-
12BB-/	.	.	.	.	.	12B-/yy	.	12g\ 12ee-	.	12gg\ 12bb-	.	.	.	.	.	.	.	.	.
12BB-/	.	.	.	.	.	12B-/yy	.	12g\ 12ee-	.	12gg\ 12bb-	.	.	.	.	.	.	.	.	.
12BB-/	.	.	.	.	.	12B-/yy	.	12g\ 12ee-	.	12gg\ 12bb-	.	.	.	.	.	.	.	.	.
12BB-/	.	.	.	.	.	12B-/yy	.	12g\ 12ee-	.	12gg\ 12bb-	.	.	.	.	.	.	.	.	.
12BB-/J	.	.	.	.	.	12B-/Jyy	.	12g\J 12ee-	.	12gg\J 12bb-	.	.	.	.	.	.	.	.	.
12BBn/L	6 5	.	.	.	2dd\	12Bn/Lyy	.	12g\L 12ee-	.	12dd\L 12gg	.	2BBn/	.	2G/	.	.	.	2dd\	-ta
12BB/	.	.	.	.	.	12B/yy	.	12g\ 12ee-	.	12dd\ 12gg	.	.	.	.	.	.	.	.	.
12BB/	.	.	.	.	.	12B/yy	.	12g\ 12ee-	.	12dd\ 12gg	.	.	.	.	.	.	.	.	.
12BB/	.	.	.	4ff/	.	12B/yy	.	12g\ 12ee-	.	12dd\ 12gg	.	.	.	.	.	4f\)	.	.	.
12BB/	.	.	.	.	.	12B/yy	.	12g\ 12ee-	.	12dd\ 12gg	.	.	.	.	.	.	.	.	.
12BB/J	.	.	.	.	.	12B/Jyy	.	12g\J 12ee-	.	12dd\J 12gg	.	.	.	.	.	.	.	.	.
=21	=21	=21	=21	=21	=21	=21	=21	=21	=21	=21	=21	=21	=21	=21	=21	=21	=21	=21	=21
!	!	!	!	!LO:TX:a:t=sic:s=1ffn	!	!	!	!	!	!	!	!	!	!	!	!	!	!	!
12C/L	9	.	1c	1ee	4.dd\	12c\Lyy	.	12e-X\L 12ee-X	.	12dd\L 12gg	.	2C/	.	2G/	.	2e-X\	.	(4.dd\	mun-
12C/	.	.	.	.	.	12c\yy	.	12e-\ 12ee-	.	12dd\ 12gg	.	.	.	.	.	.	.	.	.
12C/	.	.	.	.	.	12c\yy	.	12e-\ 12ee-	.	12dd\ 12gg	.	.	.	.	.	.	.	.	.
12C/	.	.	.	.	.	12c\yy	.	12e-\ 12ee-	.	12dd\ 12gg	.	.	.	.	.	.	.	.	.
12C/	8	.	.	.	.	12c\yy	.	12e-\ 12ee-	.	12dd\ 12gg	.	.	.	.	.	.	.	.	.
.	.	.	.	.	8cc\	.	.	.	.	.	.	.	.	.	.	.	.	8cc\)	.
12C/J	.	.	.	.	.	12c\Jyy	.	12e-\J 12ee-	.	12dd\J 12gg	.	.	.	.	.	.	.	.	.
12C/L	.	.	.	.	2cc\	12c\Lyy	.	12e-\L 12ee-	.	12cc\L 12gg	.	4C/	.	4G/	.	4e-\	.	4cc\	-di
12C/	.	.	.	.	.	12c\yy	.	12e-\ 12ee-	.	12cc\ 12gg	.	.	.	.	.	.	.	.	.
12C/	.	.	.	.	.	12c\yy	.	12e-\ 12ee-	.	12cc\ 12gg	.	.	.	.	.	.	.	.	.
12C/	.	.	.	.	.	12c\yy	.	12e-\ 12ee-	.	12cc\ 12gg	.	8.C/	do-	8.G/	do-	8.e-\	-do-	8.cc\	do-
12C/	.	.	.	.	.	12c\yy	.	12e-\ 12ee-	.	12cc\ 12gg	.	.	.	.	.	.	.	.	.
12C/J	.	.	.	.	.	12c\Jyy	.	12e-\J 12ee-	.	12cc\J 12gg	.	.	.	.	.	.	.	.	.
.	.	.	.	.	.	.	.	.	.	.	.	16C/	-na	16G/	-na	16e-\	-na	16cc\	-na
=22	=22	=22	=22	=22	=22	=22	=22	=22	=22	=22	=22	=22	=22	=22	=22	=22	=22	=22	=22
!!LO:PB:g=original
*	*	*	*^	*	*	*	*	*	*	*	*	*	*	*	*	*	*	*	*
*2\right	*	*	*	*	*	*	*2\right	*	*	*	*	*	*	*	*	*	*	*	*	*
12D\L	7	.	2.f/	2.f\	(2.ff/	4.cc\	12d\Lyy	.	12g/L	.	12cc\L 12ff	.	2D\	no-	2G/	no-	2f\	no-	4.cc\	no-
12D\	.	.	.	.	.	.	12d\yy	.	12g/	.	12cc\ 12ff	.	.	.	.	.	.	.	.	.
12D\	.	.	.	.	.	.	12d\yy	.	12g/	.	12cc\ 12ff	.	.	.	.	.	.	.	.	.
12D\	6n	.	.	.	.	.	12d\yy	.	12g/	.	12cc\ 12ff	.	.	.	.	.	.	.	.	.
12D\	.	.	.	.	.	.	12d\yy	.	12g/	.	12cc\ 12ff	.	.	.	.	.	.	.	.	.
.	.	.	.	.	.	8bX\	.	.	.	.	.	.	.	.	.	.	.	.	8bn\	.
12D\J	.	.	.	.	.	.	12d\Jyy	.	12g/J	.	12cc\J 12ff	.	.	.	.	.	.	.	.	.
12D\L	.	.	.	.	.	4b\	12d\Lyy	.	12g/L	.	12bn\L 12ff	.	4D\	-bis	4G/	-bis	4f\	-bis	4b\	-bis
12D\	.	.	.	.	.	.	12d\yy	.	12g/	.	12b\ 12ff	.	.	.	.	.	.	.	.	.
12D\J	.	.	.	.	.	.	12d\Jyy	.	12g/	.	12b\J 12ff	.	.	.	.	.	.	.	.	.
*	*	*	*v	*v	*	*	*	*	*	*	*	*	*	*	*	*	*	*	*	*
12En\L	6 5	.	4c/	4gg/)	4b-\	12e\yyL	.	12g/	.	12b-X\L 12gg	.	8.En\	do-	8.c\	do-	8.g\	do-	8.b-X\	do-
12E\	.	.	.	.	.	12e\yy	.	12g/	.	12b-\ 12gg	.	.	.	.	.	.	.	.	.
12E\J	.	.	.	.	.	12e\Jyy	.	12g/J	.	12b-\J 12gg	.	.	.	.	.	.	.	.	.
.	.	.	.	.	.	.	.	.	.	.	.	16E\	-na	16c\	-na	16g\	-na	16b-\	-na
=23	=23	=23	=23	=23	=23	=23	=23	=23	=23	=23	=23	=23	=23	=23	=23	=23	=23	=23	=23
12F\L	4	.	[2c/	2cc/	4.b-\	12f\Lyy	.	12a-X/L	.	12cc\L	.	2F\	no-	2c\	no-	2f\	no-	(4.b-\	no-
12F\	.	.	.	.	.	12f\yy	.	12a-/	.	12cc\	.	.	.	.	.	.	.	.	.
12F\	.	.	.	.	.	12f\yy	.	12a-/	.	12cc\	.	.	.	.	.	.	.	.	.
12F\	3-	.	.	.	.	12f\yy	.	12a-/	.	12cc\	.	.	.	.	.	.	.	.	.
12F\	.	.	.	.	.	12f\yy	.	12a-/	.	12cc\	.	.	.	.	.	.	.	.	.
.	.	.	.	.	8a-X\	.	.	.	.	.	.	.	.	.	.	.	.	8a-X\)	.
12F\J	.	.	.	.	.	12f\Jyy	.	12a-/J	.	12cc\J	.	.	.	.	.	.	.	.	.
*Xtremolo	*	*	*	*	*	*Xtremolo	*	*	*	*	*	*	*	*	*	*	*	*	*
12F\L	.	.	4c/]	4cc/	4a-\	12f\Lyy	.	4a-/	.	4cc\	.	4F\	-bis	4c\	-bis	4f\	-bis	4a-\	-bis
12F\	.	.	.	.	.	12f\yy	.	.	.	.	.	.	.	.	.	.	.	.	.
12G\J	.	.	.	.	.	12g\Jyy	.	.	.	.	.	.	.	.	.	.	.	.	.
12A-X\L	.	.	4r	4r	4ryy	12a-X\Lyy	.	4r	.	4r	.	4r	.	4r	.	4r	.	4r	.
12G\	.	.	.	.	.	12g\yy	.	.	.	.	.	.	.	.	.	.	.	.	.
12F\J	.	.	.	.	.	12f\Jyy	.	.	.	.	.	.	.	.	.	.	.	.	.
*	*	*	*	*v	*v	*	*	*	*	*	*	*	*	*	*	*	*	*	*
=24	=24	=24	=24	=24	=24	=24	=24	=24	=24	=24	=24	=24	=24	=24	=24	=24	=24	=24
12Cn\L	n	.	1C 1c	4r	12cn\Lyy	.	4e/	.	4g/	.	1C	pa-	1c	pa-	2en\	pa-	(2g\	pa-
12C\	.	.	.	.	12c\yy	.	.	.	.	.	.	.	.	.	.	.	.	.
12D\J	.	.	.	.	12d\Jyy	.	.	.	.	.	.	.	.	.	.	.	.	.
12En\L	.	.	.	4g\ 4een	12en\Lyy	.	4r	.	4r	.	.	.	.	.	.	.	.	.
12D\	.	.	.	.	12d\yy	.	.	.	.	.	.	.	.	.	.	.	.	.
12C\J	.	.	.	.	12c\Jyy	.	.	.	.	.	.	.	.	.	.	.	.	.
12F\L	3-	.	.	4r	12f\Lyy	.	4f/	.	4a-X/	.	.	.	.	.	2f\	.	2a-X\)	.
12F\	.	.	.	.	12f\yy	.	.	.	.	.	.	.	.	.	.	.	.	.
12G\J	.	.	.	.	12g\Jyy	.	.	.	.	.	.	.	.	.	.	.	.	.
12A-X\L	.	.	.	4a-X\ 4ff	12a-X\Lyy	.	4r	.	4r	.	.	.	.	.	.	.	.	.
12G\	.	.	.	.	12g\yy	.	.	.	.	.	.	.	.	.	.	.	.	.
12F\J	.	.	.	.	12f\Jyy	.	.	.	.	.	.	.	.	.	.	.	.	.
=25	=25	=25	=25	=25	=25	=25	=25	=25	=25	=25	=25	=25	=25	=25	=25	=25	=25	=25
*tremolo	*	*	*	*	*tremolo	*	*	*	*	*	*	*	*	*	*	*	*	*
12Cn\L	n	.	2C/ 2c	2g\ 2een	12cn\Lyy	.	2e/	.	2g/	.	2C/	-cem.	2c\	-cem	2e\	-cem	2g\	-cem
12C\	.	.	.	.	12c\yy	.	.	.	.	.	.	.	.	.	.	.	.	.
12C\J	.	.	.	.	12c\Jyy	.	.	.	.	.	.	.	.	.	.	.	.	.
*Xtremolo	*	*	*	*	*Xtremolo	*	*	*	*	*	*	*	*	*	*	*	*	*
(12C\L	.	.	.	.	(12c\Lyy	.	.	.	.	.	.	.	.	.	.	.	.	.
12C\	.	.	.	.	12c\yy	.	.	.	.	.	.	.	.	.	.	.	.	.
12D\J	.	.	.	.	12d\Jyy	.	.	.	.	.	.	.	.	.	.	.	.	.
!!LO:TX:a:t=na końcu pierwszy takt "Dona nobis" i adnotacja "Dal Segno"
12E\L	.	.	2r	2r	12e\Lyy	.	2r	.	2r	.	2r	.	2r	.	2r	.	2r	.
12BBn\	.	.	.	.	12Bn\yy	.	.	.	.	.	.	.	.	.	.	.	.	.
12C\J	.	.	.	.	12c\Jyy	.	.	.	.	.	.	.	.	.	.	.	.	.
12BB-X\L	.	.	.	.	12B-X/Lyy	.	.	.	.	.	.	.	.	.	.	.	.	.
12AAn\	.	.	.	.	12An/yy	.	.	.	.	.	.	.	.	.	.	.	.	.
12GG\J)	.	.	.	.	12G/J)yy	.	.	.	.	.	.	.	.	.	.	.	.	.
==	==	==	==	==	==	==	==	==	==	==	==	==	==	==	==	==	==	==
*-	*-	*-	*-	*-	*-	*-	*-	*-	*-	*-	*-	*-	*-	*-	*-	*-	*-	*-
!!!system-decoration: g1,g2,g3,g4,g5
!!!ENC: Anna Matuszewska
!!!END: 2020-12-06
!!!YEC: Copyright 2022 Narodowy Instytut Fryderyka Chopina (https://polishscores.org)
!!!YEM: License CC-BY-4.0 (https://creativecommons.org/licenses/by/4.0)
